icons/fleet-light.svg

<svg width="256" height="256" viewBox="0 0 256 256" fill="none" xmlns="http://www.w3.org/2000/svg">
<g id="Fleet" clip-path="url(#clip0_8_438)">
<path id="Vector" d="M196 0H60C26.8629 0 0 26.8629 0 60V196C0 229.137 26.8629 256 60 256H196C229.137 256 256 229.137 256 196V60C256 26.8629 229.137 0 196 0Z" fill="#F4F2ED"/>
<g id="Group">
<path id="Vector_2" d="M150.943 168.526C190.372 168.526 222.336 144.314 222.336 114.448C222.336 84.5816 190.372 60.3701 150.943 60.3701C111.513 60.3701 79.5493 84.5816 79.5493 114.448C79.5493 144.314 111.513 168.526 150.943 168.526Z" fill="url(#paint0_radial_8_438)"/>
<path id="Vector_3" d="M150.943 168.526C190.372 168.526 222.336 144.314 222.336 114.448C222.336 84.5816 190.372 60.3701 150.943 60.3701C111.513 60.3701 79.5493 84.5816 79.5493 114.448C79.5493 144.314 111.513 168.526 150.943 168.526Z" fill="url(#paint1_radial_8_438)"/>
<path id="Vector_4" d="M225 127.5C225 181.348 181.348 225 127.5 225C73.6523 225 30 181.348 30 127.5C30 73.6523 73.6523 30 127.5 30C152.807 41.4549 179.282 84.0778 190.369 97.3976C201.455 110.717 230.152 127.5 216.089 92.2934C222.085 101.809 225 117.598 225 127.5Z" fill="url(#paint2_radial_8_438)"/>
<path id="Vector_5" d="M225 127.5C225 181.348 181.348 225 127.5 225C73.6523 225 30 181.348 30 127.5C30 73.6523 73.6523 30 127.5 30C152.807 41.4549 179.282 84.0778 190.369 97.3976C201.455 110.717 230.152 127.5 216.089 92.2934C222.085 101.809 225 117.598 225 127.5Z" fill="url(#paint3_radial_8_438)"/>
<path id="Vector_6" d="M225 127.5C225 181.348 181.348 225 127.5 225C73.6523 225 30 181.348 30 127.5C30 73.6523 73.6523 30 127.5 30C152.807 41.4549 179.282 84.0778 190.369 97.3976C201.455 110.717 230.152 127.5 216.089 92.2934C222.085 101.809 225 117.598 225 127.5Z" fill="url(#paint4_radial_8_438)"/>
<path id="Vector_7" d="M225 127.5C225 181.348 181.348 225 127.5 225C73.6523 225 30 181.348 30 127.5C30 73.6523 73.6523 30 127.5 30C152.807 41.4549 179.282 84.0778 190.369 97.3976C201.455 110.717 230.152 127.5 216.089 92.2934C222.085 101.809 225 117.598 225 127.5Z" fill="url(#paint5_linear_8_438)"/>
<path id="Vector_8" d="M138.209 200.707C175.116 192.827 200.808 166.645 195.595 142.227C190.381 117.81 156.236 104.403 119.33 112.283C82.4231 120.163 56.7306 146.345 61.944 170.763C67.1573 195.18 101.302 208.587 138.209 200.707Z" fill="url(#paint6_radial_8_438)"/>
<path id="Vector_9" d="M138.209 200.707C175.116 192.827 200.808 166.645 195.595 142.227C190.381 117.81 156.236 104.403 119.33 112.283C82.4231 120.163 56.7306 146.345 61.944 170.763C67.1573 195.18 101.302 208.587 138.209 200.707Z" fill="url(#paint7_linear_8_438)"/>
<path id="Vector_10" fill-rule="evenodd" clip-rule="evenodd" d="M179.274 174.311C188.943 164.458 193.07 153.365 190.906 143.229C188.741 133.093 180.445 124.653 167.595 119.608C154.786 114.578 137.995 113.202 120.331 116.973C102.668 120.744 87.9029 128.858 78.2649 138.68C68.5958 148.534 64.4696 159.626 66.6338 169.762C68.7979 179.898 77.0943 188.339 89.9444 193.384C102.753 198.413 119.544 199.789 137.208 196.019C154.872 192.247 169.637 184.132 179.274 174.311ZM138.209 200.707C175.116 192.828 200.809 166.646 195.596 142.228C190.382 117.81 156.236 104.404 119.33 112.284C82.4235 120.163 56.731 146.346 61.9443 170.764C67.1577 195.18 101.303 208.588 138.209 200.707Z" fill="#D6F8F8" fill-opacity="0.19"/>
</g>
</g>
<defs>
<radialGradient id="paint0_radial_8_438" cx="0" cy="0" r="1" gradientUnits="userSpaceOnUse" gradientTransform="translate(138.975 151.208) rotate(-42.6352) scale(95.5685 126.169)">
<stop offset="0.771266" stop-color="#001AFF"/>
<stop offset="1" stop-color="#8ACEFF"/>
</radialGradient>
<radialGradient id="paint1_radial_8_438" cx="0" cy="0" r="1" gradientUnits="userSpaceOnUse" gradientTransform="translate(164.251 114.448) rotate(-30.5427) scale(52.7663 69.6619)">
<stop offset="0.71875" stop-color="#FA00FF" stop-opacity="0"/>
<stop offset="1" stop-color="#FF00D6" stop-opacity="0.44"/>
</radialGradient>
<radialGradient id="paint2_radial_8_438" cx="0" cy="0" r="1" gradientUnits="userSpaceOnUse" gradientTransform="translate(95.6045 110.674) rotate(49.385) scale(150.607)">
<stop offset="0.0260417" stop-color="#8DFDFD"/>
<stop offset="0.270833" stop-color="#87FBFB"/>
<stop offset="0.484416" stop-color="#74D6F4"/>
<stop offset="0.931964" stop-color="#0038FF"/>
</radialGradient>
<radialGradient id="paint3_radial_8_438" cx="0" cy="0" r="1" gradientUnits="userSpaceOnUse" gradientTransform="translate(118.405 123.784) rotate(137.237) scale(103.261)">
<stop offset="0.266661" stop-color="#0500FF" stop-opacity="0"/>
<stop offset="1" stop-color="#0500FF" stop-opacity="0.15"/>
</radialGradient>
<radialGradient id="paint4_radial_8_438" cx="0" cy="0" r="1" gradientUnits="userSpaceOnUse" gradientTransform="translate(105.805 107.905) rotate(75.1975) scale(160.869)">
<stop offset="0.420095" stop-color="#FF00E5" stop-opacity="0"/>
<stop offset="0.773534" stop-color="#FF00F5" stop-opacity="0.64"/>
<stop offset="0.898911" stop-color="#BE46FF" stop-opacity="0.87"/>
</radialGradient>
<linearGradient id="paint5_linear_8_438" x1="54.0421" y1="150.876" x2="276.465" y2="153.923" gradientUnits="userSpaceOnUse">
<stop offset="0.431832" stop-color="#FE62EE" stop-opacity="0"/>
<stop offset="0.818252" stop-color="#FD3AF5" stop-opacity="0.47"/>
</linearGradient>
<radialGradient id="paint6_radial_8_438" cx="0" cy="0" r="1" gradientUnits="userSpaceOnUse" gradientTransform="translate(110.069 128.369) rotate(83.1476) scale(72.0939 108.968)">
<stop stop-color="#00B2FF"/>
<stop offset="0.57093" stop-color="#74C5FF"/>
<stop offset="0.979167" stop-color="#9FD7FF"/>
</radialGradient>
<linearGradient id="paint7_linear_8_438" x1="121.379" y1="90.3608" x2="134.891" y2="172.615" gradientUnits="userSpaceOnUse">
<stop offset="0.0416667" stop-color="#0038FF"/>
<stop offset="0.723958" stop-color="#48BFF1" stop-opacity="0.59"/>
<stop offset="1" stop-color="#74C5FF" stop-opacity="0"/>
</linearGradient>
<clipPath id="clip0_8_438">
<rect width="256" height="256" fill="white"/>
</clipPath>
</defs>
</svg>

<svg xmlns="http://www.w3.org/2000/svg" width="256" height="256" fill="none"><g id="Fleet" clip-path="url(#clip0_8_438)"><path id="Vector" fill="#F4F2ED" d="M196 0H60C26.863 0 0 26.863 0 60v136c0 33.137 26.863 60 60 60h136c33.137 0 60-26.863 60-60V60c0-33.137-26.863-60-60-60"/><g id="Group"><path id="Vector_2" fill="url(#paint0_radial_8_438)" d="M150.943 168.526c39.429 0 71.393-24.212 71.393-54.078S190.372 60.37 150.943 60.37s-71.394 24.212-71.394 54.078 31.964 54.078 71.394 54.078"/><path id="Vector_3" fill="url(#paint1_radial_8_438)" d="M150.943 168.526c39.429 0 71.393-24.212 71.393-54.078S190.372 60.37 150.943 60.37s-71.394 24.212-71.394 54.078 31.964 54.078 71.394 54.078"/><path id="Vector_4" fill="url(#paint2_radial_8_438)" d="M225 127.5c0 53.848-43.652 97.5-97.5 97.5S30 181.348 30 127.5 73.652 30 127.5 30c25.307 11.455 51.782 54.078 62.869 67.398 11.086 13.319 39.783 30.102 25.72-5.105C222.085 101.81 225 117.598 225 127.5"/><path id="Vector_5" fill="url(#paint3_radial_8_438)" d="M225 127.5c0 53.848-43.652 97.5-97.5 97.5S30 181.348 30 127.5 73.652 30 127.5 30c25.307 11.455 51.782 54.078 62.869 67.398 11.086 13.319 39.783 30.102 25.72-5.105C222.085 101.81 225 117.598 225 127.5"/><path id="Vector_6" fill="url(#paint4_radial_8_438)" d="M225 127.5c0 53.848-43.652 97.5-97.5 97.5S30 181.348 30 127.5 73.652 30 127.5 30c25.307 11.455 51.782 54.078 62.869 67.398 11.086 13.319 39.783 30.102 25.72-5.105C222.085 101.81 225 117.598 225 127.5"/><path id="Vector_7" fill="url(#paint5_linear_8_438)" d="M225 127.5c0 53.848-43.652 97.5-97.5 97.5S30 181.348 30 127.5 73.652 30 127.5 30c25.307 11.455 51.782 54.078 62.869 67.398 11.086 13.319 39.783 30.102 25.72-5.105C222.085 101.81 225 117.598 225 127.5"/><path id="Vector_8" fill="url(#paint6_radial_8_438)" d="M138.209 200.707c36.907-7.88 62.599-34.062 57.386-58.48-5.214-24.417-39.359-37.824-76.265-29.944s-62.6 34.062-57.386 58.48 39.358 37.824 76.265 29.944"/><path id="Vector_9" fill="url(#paint7_linear_8_438)" d="M138.209 200.707c36.907-7.88 62.599-34.062 57.386-58.48-5.214-24.417-39.359-37.824-76.265-29.944s-62.6 34.062-57.386 58.48 39.358 37.824 76.265 29.944"/><path id="Vector_10" fill="#D6F8F8" fill-opacity=".19" fill-rule="evenodd" d="M179.274 174.311c9.669-9.853 13.796-20.946 11.632-31.082-2.165-10.136-10.461-18.576-23.311-23.621-12.809-5.03-29.6-6.406-47.264-2.635-17.663 3.771-32.428 11.885-42.066 21.707-9.67 9.854-13.795 20.946-11.631 31.082s10.46 18.577 23.31 23.622c12.809 5.029 29.6 6.405 47.264 2.635 17.664-3.772 32.429-11.887 42.066-21.708m-41.065 26.396c36.907-7.879 62.6-34.061 57.387-58.479s-39.36-37.824-76.266-29.944-62.599 34.062-57.386 58.48c5.214 24.416 39.359 37.824 76.265 29.943" clip-rule="evenodd"/></g></g><defs><radialGradient id="paint0_radial_8_438" cx="0" cy="0" r="1" gradientTransform="rotate(-42.635 263.226 -102.46)scale(95.5685 126.169)" gradientUnits="userSpaceOnUse"><stop offset=".771" stop-color="#001AFF"/><stop offset="1" stop-color="#8ACEFF"/></radialGradient><radialGradient id="paint1_radial_8_438" cx="0" cy="0" r="1" gradientTransform="matrix(45.44501 -26.8148 35.4008 59.99636 164.251 114.448)" gradientUnits="userSpaceOnUse"><stop offset=".719" stop-color="#FA00FF" stop-opacity="0"/><stop offset="1" stop-color="#FF00D6" stop-opacity=".44"/></radialGradient><radialGradient id="paint2_radial_8_438" cx="0" cy="0" r="1" gradientTransform="rotate(49.385 -72.55 159.302)scale(150.607)" gradientUnits="userSpaceOnUse"><stop offset=".026" stop-color="#8DFDFD"/><stop offset=".271" stop-color="#87FBFB"/><stop offset=".484" stop-color="#74D6F4"/><stop offset=".932" stop-color="#0038FF"/></radialGradient><radialGradient id="paint3_radial_8_438" cx="0" cy="0" r="1" gradientTransform="rotate(137.237 34.97 85.071)scale(103.261)" gradientUnits="userSpaceOnUse"><stop offset=".267" stop-color="#0500FF" stop-opacity="0"/><stop offset="1" stop-color="#0500FF" stop-opacity=".15"/></radialGradient><radialGradient id="paint4_radial_8_438" cx="0" cy="0" r="1" gradientTransform="rotate(75.198 -17.16 122.65)scale(160.869)" gradientUnits="userSpaceOnUse"><stop offset=".42" stop-color="#FF00E5" stop-opacity="0"/><stop offset=".774" stop-color="#FF00F5" stop-opacity=".64"/><stop offset=".899" stop-color="#BE46FF" stop-opacity=".87"/></radialGradient><radialGradient id="paint6_radial_8_438" cx="0" cy="0" r="1" gradientTransform="matrix(8.60167 71.57892 -108.18962 13.0012 110.069 128.369)" gradientUnits="userSpaceOnUse"><stop stop-color="#00B2FF"/><stop offset=".571" stop-color="#74C5FF"/><stop offset=".979" stop-color="#9FD7FF"/></radialGradient><linearGradient id="paint5_linear_8_438" x1="54.042" x2="276.465" y1="150.876" y2="153.923" gradientUnits="userSpaceOnUse"><stop offset=".432" stop-color="#FE62EE" stop-opacity="0"/><stop offset=".818" stop-color="#FD3AF5" stop-opacity=".47"/></linearGradient><linearGradient id="paint7_linear_8_438" x1="121.379" x2="134.891" y1="90.361" y2="172.615" gradientUnits="userSpaceOnUse"><stop offset=".042" stop-color="#0038FF"/><stop offset=".724" stop-color="#48BFF1" stop-opacity=".59"/><stop offset="1" stop-color="#74C5FF" stop-opacity="0"/></linearGradient><clipPath id="clip0_8_438"><path fill="#fff" d="M0 0h256v256H0z"/></clipPath></defs></svg>
